material/.icons/material/magnify-plus.svg

<svg xmlns="http://www.w3.org/2000/svg" viewBox="0 0 24 24"><path d="M9 2a7 7 0 017 7c0 1.57-.5 3-1.39 4.19l.8.81H16l6 6-2 2-6-6v-.59l-.81-.8A6.916 6.916 0 019 16a7 7 0 01-7-7 7 7 0 017-7M8 5v3H5v2h3v3h2v-3h3V8h-3V5H8z"/></svg>

<?xml version="1.0" encoding="UTF-8"?><!DOCTYPE svg PUBLIC "-//W3C//DTD SVG 1.1//EN" "http://www.w3.org/Graphics/SVG/1.1/DTD/svg11.dtd"><svg xmlns="http://www.w3.org/2000/svg" xmlns:xlink="http://www.w3.org/1999/xlink" version="1.1" id="mdi-magnify-plus" width="24" height="24" viewBox="0 0 24 24"><path d="M9,2A7,7 0 0,1 16,9C16,10.57 15.5,12 14.61,13.19L15.41,14H16L22,20L20,22L14,16V15.41L13.19,14.61C12,15.5 10.57,16 9,16A7,7 0 0,1 2,9A7,7 0 0,1 9,2M8,5V8H5V10H8V13H10V10H13V8H10V5H8Z" /></svg>
